X: 2318
M: 6/8
L: 1/8
K: D
vf/ue/ |\
vd2uA def | d3 (A2B) | =cdc cGE | =c3 uE2u^c |\
vd2vA dfe | d3 (A2G) | FDF ECE | D3- D2 ::\
(F/G/) |\


